symbols/web/vibration/materialsymbolsoutlined/vibration_wght300grad200_48px.svg

<svg xmlns="http://www.w3.org/2000/svg" height="48" width="48"><path d="M.3 29.65V18.3h2.95v11.35Zm6 4.35V14h2.9v20Zm38.45-4.35V18.3h2.95v11.35ZM38.8 34V14h2.9v20Zm-23 7.8q-1.45 0-2.5-1.05t-1.05-2.5V9.75q0-1.45 1.05-2.5t2.5-1.05h16.4q1.45 0 2.5 1.05t1.05 2.5v28.5q0 1.45-1.05 2.5t-2.5 1.05Zm0-2.9h16.4q.3 0 .475-.175t.175-.475V9.75q0-.3-.175-.475T32.2 9.1H15.8q-.3 0-.475.175t-.175.475v28.5q0 .3.175.475t.475.175Zm-.65 0V9.1v29.8Z"/></svg>

<svg xmlns="http://www.w3.org/2000/svg" height="48" width="48"><path d="M0.3 29.65V18.3H3.25V29.65ZM6.3 34V14H9.2V34ZM44.75 29.65V18.3H47.7V29.65ZM38.8 34V14H41.7V34ZM15.8 41.8Q14.35 41.8 13.3 40.75Q12.25 39.7 12.25 38.25V9.75Q12.25 8.3 13.3 7.25Q14.35 6.2 15.8 6.2H32.2Q33.65 6.2 34.7 7.25Q35.75 8.3 35.75 9.75V38.25Q35.75 39.7 34.7 40.75Q33.65 41.8 32.2 41.8ZM15.8 38.9H32.2Q32.5 38.9 32.675 38.725Q32.85 38.55 32.85 38.25V9.75Q32.85 9.45 32.675 9.275Q32.5 9.1 32.2 9.1H15.8Q15.5 9.1 15.325 9.275Q15.15 9.45 15.15 9.75V38.25Q15.15 38.55 15.325 38.725Q15.5 38.9 15.8 38.9ZM15.15 38.9Q15.15 38.9 15.15 38.725Q15.15 38.55 15.15 38.25V9.75Q15.15 9.45 15.15 9.275Q15.15 9.1 15.15 9.1Q15.15 9.1 15.15 9.275Q15.15 9.45 15.15 9.75V38.25Q15.15 38.55 15.15 38.725Q15.15 38.9 15.15 38.9Z"/></svg>
